X:1
T:The Well-Tempered Clavier Part II Fuga XXIV
T:BWV 893
T:J. S. Bach
%%score { ( 1 2 ) | ( 3 4 ) }
L:1/8
M:3/8
K:D
V:1 treble nm="Harp"
V:2 treble 
V:3 bass 
V:4 bass 
V:1
 z | z3 | z3 | z3 | z3 | z3 | z z B | AF^E | F^G/A/B/c/ | dDd | cCc | Bc/B/A/^G/ | A/c/B/A/^G/F/ | %13
 GA/G/F/E/ | F/A/G/F/E/D/ | EF/E/D/C/ | D F2- | F3- | FEA- | AFD- | DCF- | %21
 F/^G/A/4G/4A/4G/4A/4G/4F/4G/4 | A/c/B/A/^G/F/ | ^G/^A/B/4A/4B/4A/4B/4A/4G/4A/4 | B/d/c/B/A/^G/ | %25
 A/B/c/4B/4c/4B/4c/4B/4A/4B/4 | c3- | c/d/c/B/A/^G/ | AF^E | F2 B- | B=F^F | D C2- | C2 F | DEF- | %34
 FED | C z a | fdc | de/f/g/a/ | bBb | aAa | ga/g/f/e/ | f/a/g/f/e/d/ | cde- | edc | BAB | ced | %46
 c3- | c/c/D/c/D/B/ | C/B/C/B/C/A/ | B,/A/^G/B/E/G/ | AEF | G^G^A | BF^G | A_B=c | c3- | cA^G | %56
 F z z | z/ a/B/a/B/^g/ | A/^g/A/g/A/f/ | ^G/f/^e/^g/c/e/ | fcf- | f/e/^d/c/B- | BBe- | %63
 e/d/c/B/A- | AAd- | d-d/d/c/B/ | ^ABc | d2- d- | d/c/d/e/f/g/ | _B2 z | z3 | z3 | z3 | %73
 z/ g/A/g/A/f/ | G/f/G/f/G/e/ | F/e/^d/f/B/d/ | e/^d/e/g/b/=d/ | c/B/c/e/A/c/ | d/c/d/f/a/c/ | %79
 B/A/B/d/c/B/ | ^A/B/c/d/e- | ecf | dB^A | Bc/d/e/f/ | gGg | fFf | ef/e/d/c/ | def- | fed | cde- | %90
 edc | B2 c | dAB | =c^c^d | eBc | d^d^e | f2 z | z3 | z z z/ f/ | e/d/c/B/c/^A/ | %100
{!fermata!^A} !fermata!B2 z |] %101
V:2
 F | DB,^A, | B,C/D/E/F/ | GG,G | FF,F | EF/E/D/C/ | D/F/E/D/C/B,/ | C/B,/C/D/C/B,/ | x3 | x3 | %10
 x3 | x3 | x3 | x3 | x3 | x3 | x3 | x3 | B,/C/D/4C/4D/4C/4D/4C/4B,/4C/4 | D/E/D/C/B,/A,/ | %20
 ^G,/^A,/B,/4A,/4B,/4A,/4B,/4A,/4G,/4A,/4 | B, z z | x3 | x3 | x3 | x3 | z z C | %27
[I:staff +1] A,F,^E, | F,^G,/A,/B,/C/ |[I:staff -1] D[I:staff +1]D,[I:staff -1]D | %30
 C[I:staff +1]C,[I:staff -1]C | B,C/B,/A,/^G,/ | A,B,C- | CB,A, | G,A,B, | B,A, z | x3 | x3 | %38
 z/[I:staff +1] F/G,/F/G,/E/ | F,/E/F,/E/F,/D/ | E,/D/C/E/A,/C/ | D/C/D/E/F/^G/ | %42
 A/[I:staff -1]^G/A/B/A/G/ | F/E/F/^G/A/F/ | ^G/E/F/E/G/E/ | A/E/B/E/B/E/ |{B} A>^GF/E/ | DA^G | %48
 z ^GF | z ED- | DC=C- | CB,E- | E^D=D | DCF | F^Ec | AF^E | F^G/^A/B/c/ | %57
 d[I:staff +1]D[I:staff -1]d | c[I:staff +1]C[I:staff -1]c | Bc/B/A/^G/ | A3- | A2- A/A/ | %62
 G/F/EG- | G2- G/G/ | F/E/DF- | F/F/ E2- | E/E/[I:staff +1]D/C/B,/^A,/ | B,[I:staff -1]FB- | %68
 B[I:staff +1]B,E- | E/[I:staff -1]G/F/E/D/C/ | DB,^A, | B,C/^D/E/F/ | GE^D | %73
[I:staff +1] E[I:staff -1] z[I:staff +1] E | ^D[I:staff -1] z[I:staff +1] E |[I:staff -1] F3 | %76
[I:staff +1] B,[I:staff -1] z[I:staff +1] E |[I:staff -1] A z z | %78
[I:staff +1] A,[I:staff -1] z[I:staff +1] D |[I:staff -1] G3- | G z z/ G/ | F ^A2 | B z z | x3 | %84
 z/ d/[I:staff +1]E/[I:staff -1]d/[I:staff +1]E/[I:staff -1]c/ | %85
[I:staff +1] D/[I:staff -1]c/[I:staff +1]D/[I:staff -1]c/[I:staff +1]D/[I:staff -1]B/ | C c2- | %87
 cBA | GAB- | BAG | FGA- | ADG- | GF=F- | FEA- | A^G=G- | GFB- | B^AF | DB,^A, | B,/B/^A/B/c | %99
 z FE |{E} ^D2 z |] %101
V:3
 z | z3 | z3 | z3 | z3 | z3 | z3 | z3 | A,F,^E, | F,/^G,/A,/4G,/4A,/4G,/4A,/4G,/4F,/4G,/4 | %10
 A,/B,/A,/^G,/F,/E,/ | ^D,/^E,/F,/4E,/4F,/4E,/4F,/4E,/4D,/4E,/4 | F,^G,A, | %13
 B,/C/D/4C/4D/4C/4D/4C/4B,/4C/4 | DA,B,- | B,^A,/^G,/A, | D,B,,^A,, | B,,C,/D,/E,/F,/ | G,G,,G, | %19
 F,F,,F, | E,F,/E,/D,/C,/ | D,/F,/E,/D,/C,/B,,/ | C,/^D,/E,/4D,/4E,/4D,/4E,/4D,/4C,/4D,/4 | %23
 E,/G,/F,/E,/D,/C,/ | ^D,/^E,/F,/4E,/4F,/4E,/4F,/4E,/4D,/4E,/4 | F,/A,/^G,/F,/^E,/^D,/ | %26
 ^E,/^G,/F,/E,/^D,/C,/ | F,A,,C, | F,, z z | z/ A,/B,,/A,/B,,/^G,/ | A,,/^G,/A,,/G,/A,,/F,/ | %31
 ^G,,/F,/^E,/^G,/C,/E,/ | F,,/F,/^G,,/F,/A,,/F,/ | B,,/F,/C,/F,/D,/F,/ | E,,/E,/F,,/E,/G,,/E,/ | %35
 A,,/E,/B,,/E,/C,/E,/ | D,/E,/F,/G,/A,/G,/ | F,/A,/G,/F,/E,/D,/ | G, z E, | F, z D, | E, A,2 | %41
 D, z B, | F z C | D z ^D | E z E, | C,A,,^G,, | A,,B,,/C,/D,/E,/ | F,F,,F, | E,E,,E, | %49
 D,E,/D,/C,/B,,/ | C,/E,/A,/E,/^D,/A,/ | E,/G,/F,/E,/D,/C,/ | ^D,/F,/B,/F,/^E,/B,/ | %53
 F,/A,/^G,/F,/^E,/^D,/ | C,/D,/C,/B,,/A,,/^G,,/ | F,,/F,/^G,/A,/B,/C/ | D/E/D/C/B,/^A,/ | B, z E, | %58
 A, z D- | D C2- | C/B,/A,/^G,/F,/E,/ | ^D, B,2- | B,/A,/G,/F,/E,/D,/ | C, A,2- | %64
 A,/G,/F,/E,/D,/C,/ | B,, G,2- | G, F,2- | F,/E,/D,/C,/B,,/A,,/ | G,, G,2 | F,2 z | %70
 z/ B,,/C,/D,/E,/F,/ | G,E,^D, | E,F,/G,/A,/B,/ | =C=C,C | B,B,,B, | A,B,/A,/G,/F,/ | G,G,,G,- | %77
 G,A,/G,/F,/E,/ | F,F,,F,- | F,E,D, | C,/D,/E,/F,/G,/B,,/ | ^A,,/G,/F,/E,/D,/C,/ | %82
 B,,/C,/D,/E,/F,/E,/ | D,/F,/E,/D,/C,/B,,/ | E, z A, | D, z G, | C,/B,/^A,/C/F,/A,/ | %87
 B,,/B,/C,/B,/D,/B,/ | E,/B,/F,/B,/G,/B,/ | A,,/A,/B,,/A,/C,/A,/ | D,/A,/E,/A,/F,/A,/ | %91
 G,/B,/A,/G,/F,/E,/ | F,/A,/D/A,/^G,/D/ | A,/=C/B,/A,/G,/F,/ | ^G,/B,/E/B,/^A,/E/ | %95
 B,/D/C/B,/^A,/^G,/ | F,/G,/F,/E,/D,/C,/ | B,,/C,/D,/E,/F,/E,/ | D,B,,^A,, | B,,D,,F,, | %100
 !fermata!B,,,2 z |] %101
V:4
 x | x3 | x3 | x3 | x3 | x3 | x3 | x3 | x3 | x3 | x3 | x3 | x3 | x3 | x3 | z z F, | x3 | x3 | x3 | %19
 x3 | x3 | x3 | x3 | x3 | x3 | x3 | x3 | x3 | x3 | x3 | x3 | x3 | x3 | x3 | x3 | x3 | x3 | x3 | %38
 x3 | x3 | x3 | x3 | x3 | x3 | x3 | x3 | x3 | x3 | x3 | x3 | x3 | x3 | x3 | x3 | x3 | x3 | x3 | %57
 x3 | x3 | x3 | x3 | x3 | x3 | x3 | x3 | x3 | x3 | x3 | x3 | x3 | x3 | x3 | x3 | x3 | x3 | x3 | %76
 x3 | x3 | x3 | x3 | x3 | x3 | x3 | x3 | x3 | x3 | x3 | x3 | x3 | x3 | x3 | x3 | x3 | x3 | x3 | %95
 x3 | x3 | x3 | x3 | x3 | x3 |] %101

